dashboard/assets/pic-57-cda46342106d6872.svg

<svg xmlns="http://www.w3.org/2000/svg" viewBox="0 0 18.26 28.04"><g data-name="图层 2"><path d="M17.84 4.31L16.89 0l-1.58 4.12a5 5 0 01-1.38 2 3.26 3.26 0 01-2.11.88 1.46 1.46 0 01-.35-.07 8.13 8.13 0 01-1.61-.82l-.73-.51-.73.49a9.35 9.35 0 01-1.07.59 4.67 4.67 0 01-.55.23 1.41 1.41 0 01-.34.09 3.3 3.3 0 01-2.12-.9 5.16 5.16 0 01-1.38-2L1.37 0l-1 4.31A23.68 23.68 0 000 9a31 31 0 00.57 6c1.12 5.72 3.83 10.1 7.86 12.59l.7.42.21-.12.48-.3c4-2.49 6.75-6.87 7.87-12.59a31.79 31.79 0 00.57-6 23.5 23.5 0 00-.42-4.69zm-.93 10.57c-1.09 5.57-3.69 9.71-7.5 12.07l-.28.17-.28-.12C5 24.59 2.44 20.45 1.34 14.88A30.91 30.91 0 01.79 9a23.32 23.32 0 01.39-4.56l.39-1.74.63 1.7a5.84 5.84 0 001.61 2.3 4 4 0 002.63 1.07A2.18 2.18 0 007 7.66a8.43 8.43 0 001.8-.91l.3-.2.29.2a10.22 10.22 0 001.17.65c.22.1.43.19.63.26a2.18 2.18 0 00.6.11 4 4 0 002.66-1.07 5.92 5.92 0 001.6-2.3l.63-1.66.39 1.74a23.11 23.11 0 01.4 4.52 30.18 30.18 0 01-.56 5.88zm-5.09-6.3a6.47 6.47 0 01-2.69-1.06 6.53 6.53 0 01-2.69 1.06 5.54 5.54 0 01-4.62-3.07 30 30 0 00.32 9.21c.72 3.66 2.51 8.6 7 11.44 4.47-2.84 6.27-7.78 7-11.44a29.34 29.34 0 00.32-9.21 5.53 5.53 0 01-4.64 3.07z" fill="#375d81" data-name="Layer 1"/></g></svg>

<svg xmlns="http://www.w3.org/2000/svg" viewBox="0 0 18.26 28.04"><defs><style>.cls-1{fill:#375d81;}</style></defs><title>资源 12</title><g id="图层_2" data-name="图层 2"><g id="Layer_1" data-name="Layer 1"><path class="cls-1" d="M17.84,4.31,16.89,0,15.31,4.12a5,5,0,0,1-1.38,2A3.26,3.26,0,0,1,11.82,7a1.46,1.46,0,0,1-.35-.07,8.13,8.13,0,0,1-1.61-.82L9.13,5.6l-.73.49a9.35,9.35,0,0,1-1.07.59,4.67,4.67,0,0,1-.55.23A1.41,1.41,0,0,1,6.44,7,3.3,3.3,0,0,1,4.32,6.1a5.16,5.16,0,0,1-1.38-2L1.37,0l-1,4.31A23.68,23.68,0,0,0,0,9a31,31,0,0,0,.57,6c1.12,5.72,3.83,10.1,7.86,12.59l.7.42.21-.12.48-.3c4-2.49,6.75-6.87,7.87-12.59a31.79,31.79,0,0,0,.57-6A23.5,23.5,0,0,0,17.84,4.31Zm-.93,10.57c-1.09,5.57-3.69,9.71-7.5,12.07l-.28.17L8.85,27C5,24.59,2.44,20.45,1.34,14.88A30.91,30.91,0,0,1,.79,9a23.32,23.32,0,0,1,.39-4.56l.39-1.74L2.2,4.4A5.84,5.84,0,0,0,3.81,6.7,4,4,0,0,0,6.44,7.77,2.18,2.18,0,0,0,7,7.66a8.43,8.43,0,0,0,1.8-.91l.3-.2.29.2a10.22,10.22,0,0,0,1.17.65c.22.1.43.19.63.26a2.18,2.18,0,0,0,.6.11A4,4,0,0,0,14.45,6.7a5.92,5.92,0,0,0,1.6-2.3l.63-1.66.39,1.74A23.11,23.11,0,0,1,17.47,9,30.18,30.18,0,0,1,16.91,14.88Zm-5.09-6.3A6.47,6.47,0,0,1,9.13,7.52,6.53,6.53,0,0,1,6.44,8.58,5.54,5.54,0,0,1,1.82,5.51a30,30,0,0,0,.32,9.21c.72,3.66,2.51,8.6,7,11.44,4.47-2.84,6.27-7.78,7-11.44a29.34,29.34,0,0,0,.32-9.21A5.53,5.53,0,0,1,11.82,8.58Z"/></g></g></svg>
